site/web/app/themes/cedreo-designer/assets/icons/info.svg

<?xml version="1.0" encoding="utf-8"?>
<!-- Generated by IcoMoon.io -->
<!DOCTYPE svg PUBLIC "-//W3C//DTD SVG 1.1//EN" "http://www.w3.org/Graphics/SVG/1.1/DTD/svg11.dtd">
<svg version="1.1" xmlns="http://www.w3.org/2000/svg" xmlns:xlink="http://www.w3.org/1999/xlink" width="32" height="32" viewBox="0 0 32 32">
<path fill="#000" d="M18 8.3c0 1.049-0.851 1.9-1.9 1.9s-1.9-0.851-1.9-1.9c0-1.049 0.851-1.9 1.9-1.9s1.9 0.851 1.9 1.9zM17.4 12.7v-1.2h-3.8v1.2h1.2v10.9h-1.2v1.3h5.1v-1.3h-1.3z"></path>
<path fill="#000" d="M16 0c-8.8 0-16 7.2-16 16s7.2 16 16 16 16-7.2 16-16-7.2-16-16-16zM16 30.7c-8.1 0-14.7-6.6-14.7-14.7s6.6-14.7 14.7-14.7 14.7 6.6 14.7 14.7-6.6 14.7-14.7 14.7z"></path>
</svg>

<svg xmlns="http://www.w3.org/2000/svg" width="32" height="32" viewBox="0 0 32 32"><path d="M18 8.3a1.9 1.9 0 1 1-3.8 0 1.9 1.9 0 0 1 3.8 0zm-.6 4.4v-1.2h-3.8v1.2h1.2v10.9h-1.2v1.3h5.1v-1.3h-1.3z"/><path d="M16 0C7.2 0 0 7.2 0 16s7.2 16 16 16 16-7.2 16-16S24.8 0 16 0zm0 30.7C7.9 30.7 1.3 24.1 1.3 16S7.9 1.3 16 1.3 30.7 7.9 30.7 16 24.1 30.7 16 30.7z"/></svg>
